public/assets/image/logoWorkFlow-com-nome.svg

<svg width="238" height="45" viewBox="0 0 238 45" fill="none" xmlns="http://www.w3.org/2000/svg">
<g clip-path="url(#clip0_3_75)">
<path d="M3.2069 0.922379H61.9786V9.24759C61.9786 10.9991 60.5419 12.4207 58.7717 12.4207H0V4.0955C0 2.34394 1.43669 0.922379 3.2069 0.922379Z" fill="white"/>
<path d="M0 13.4207L20.6994 19.3005H41.2792L20.6994 13.4207H0Z" fill="white"/>
<path d="M3.2069 20.3005H41.2792V28.6257C41.2792 30.3773 39.8425 31.7988 38.0723 31.7988H0V23.4736C0 21.7221 1.43669 20.3005 3.2069 20.3005Z" fill="white"/>
<path d="M0 32.7988L10.3048 35.8905H20.7208L10.432 32.7988H0Z" fill="white"/>
<path d="M3.2069 36.8905H20.6994V40.9045C20.6994 42.6561 19.2628 44.0776 17.4926 44.0776H0V40.0636C0 38.3121 1.43669 36.8905 3.2069 36.8905Z" fill="white"/>
</g>
<path d="M74.048 31L68 9.88H75.04L78.016 25.816L81.344 9.88H87.104L90.592 25.72L93.504 9.88H100.288L94.24 31H87.2L85.152 21.976L84.288 16.696H84.192L83.328 21.976L81.28 31H74.048ZM107.943 14.68C109.692 14.68 111.218 15.0107 112.519 15.672C113.82 16.312 114.834 17.2507 115.559 18.488C116.284 19.7253 116.647 21.2293 116.647 23C116.647 24.7493 116.284 26.2533 115.559 27.512C114.834 28.7493 113.82 29.6987 112.519 30.36C111.218 31 109.692 31.32 107.943 31.32C106.236 31.32 104.722 31 103.399 30.36C102.098 29.6987 101.074 28.7493 100.327 27.512C99.6017 26.2533 99.239 24.7493 99.239 23C99.239 21.2293 99.6017 19.7253 100.327 18.488C101.074 17.2507 102.098 16.312 103.399 15.672C104.722 15.0107 106.236 14.68 107.943 14.68ZM107.943 19.128C107.474 19.128 107.068 19.2453 106.727 19.48C106.407 19.7147 106.162 20.12 105.991 20.696C105.82 21.272 105.735 22.04 105.735 23C105.735 23.96 105.82 24.728 105.991 25.304C106.162 25.8587 106.407 26.264 106.727 26.52C107.068 26.7547 107.474 26.872 107.943 26.872C108.434 26.872 108.839 26.7547 109.159 26.52C109.479 26.264 109.724 25.8587 109.895 25.304C110.066 24.728 110.151 23.96 110.151 23C110.151 22.04 110.066 21.272 109.895 20.696C109.724 20.12 109.479 19.7147 109.159 19.48C108.839 19.2453 108.434 19.128 107.943 19.128ZM119.068 31V15H124.86L125.052 18.744C125.415 17.4853 125.98 16.4933 126.748 15.768C127.537 15.0427 128.561 14.68 129.82 14.68C130.268 14.68 130.631 14.7227 130.908 14.808C131.185 14.872 131.388 14.9573 131.516 15.064L130.94 20.312C130.727 20.2267 130.449 20.152 130.108 20.088C129.767 20.024 129.372 19.992 128.924 19.992C128.284 19.992 127.708 20.1093 127.196 20.344C126.684 20.5787 126.279 20.9307 125.98 21.4C125.681 21.848 125.532 22.424 125.532 23.128V31H119.068ZM151.885 15L143.917 23.64L142.765 23.832L138.445 28.888L138.349 22.488L144.845 15H151.885ZM139.501 8.408V31H133.037V8.408H139.501ZM144.973 19.544L152.237 31H145.133L140.941 23.352L144.973 19.544ZM170.209 12.28H157.985V19.096H167.521V21.496H157.985V31H155.425V9.88H170.209V12.28ZM176.908 7.64V26.936C176.908 27.7467 177.057 28.312 177.356 28.632C177.655 28.9307 178.135 29.08 178.796 29.08C179.223 29.08 179.575 29.048 179.852 28.984C180.129 28.92 180.503 28.8027 180.972 28.632L180.556 30.872C180.215 31.0213 179.841 31.128 179.436 31.192C179.031 31.2773 178.615 31.32 178.188 31.32C176.887 31.32 175.916 30.968 175.276 30.264C174.657 29.56 174.348 28.4827 174.348 27.032V7.64H176.908ZM190.881 14.68C192.396 14.68 193.729 15.0107 194.881 15.672C196.055 16.3333 196.972 17.2933 197.633 18.552C198.295 19.7893 198.625 21.272 198.625 23C198.625 24.728 198.295 26.2213 197.633 27.48C196.972 28.7173 196.055 29.6667 194.881 30.328C193.729 30.9893 192.396 31.32 190.881 31.32C189.388 31.32 188.055 30.9893 186.881 30.328C185.708 29.6667 184.791 28.7173 184.129 27.48C183.468 26.2213 183.137 24.728 183.137 23C183.137 21.272 183.468 19.7893 184.129 18.552C184.791 17.2933 185.708 16.3333 186.881 15.672C188.055 15.0107 189.388 14.68 190.881 14.68ZM190.881 16.888C189.793 16.888 188.865 17.1333 188.097 17.624C187.329 18.1147 186.732 18.8187 186.305 19.736C185.9 20.632 185.697 21.72 185.697 23C185.697 24.2587 185.9 25.3467 186.305 26.264C186.732 27.1813 187.329 27.8853 188.097 28.376C188.865 28.8667 189.793 29.112 190.881 29.112C191.969 29.112 192.897 28.8667 193.665 28.376C194.433 27.8853 195.02 27.1813 195.425 26.264C195.852 25.3467 196.065 24.2587 196.065 23C196.065 21.72 195.852 20.632 195.425 19.736C195.02 18.8187 194.433 18.1147 193.665 17.624C192.897 17.1333 191.969 16.888 190.881 16.888ZM223.009 15H225.857L220.289 31H217.729L213.217 18.264L208.961 31H206.401L200.833 15H203.681L207.713 28.024L212.065 15H214.625L218.977 28.024L223.009 15Z" fill="white"/>
<defs>
<clipPath id="clip0_3_75">
<rect width="62" height="43.1552" fill="white" transform="translate(0 0.922379)"/>
</clipPath>
</defs>
</svg>

<svg width="238" height="45" fill="none" xmlns="http://www.w3.org/2000/svg"><g clip-path="url(#a)" fill="#fff"><path d="M3.207.922h58.772v8.326c0 1.751-1.437 3.173-3.207 3.173H0V4.096C0 2.344 1.437.922 3.207.922ZM0 13.42l20.7 5.88h20.58L20.7 13.42H0Zm3.207 6.88h38.072v8.326c0 1.751-1.437 3.173-3.207 3.173H0v-8.325C0 21.722 1.437 20.3 3.207 20.3ZM0 32.799l10.305 3.092H20.72l-10.289-3.092H0Zm3.207 4.091h17.492v4.014c0 1.752-1.436 3.174-3.206 3.174H0v-4.014c0-1.752 1.437-3.173 3.207-3.173Z"/></g><path d="M74.048 31 68 9.88h7.04l2.976 15.936L81.344 9.88h5.76l3.488 15.84 2.912-15.84h6.784L94.24 31H87.2l-2.048-9.024-.864-5.28h-.096l-.864 5.28L81.28 31h-7.232Zm33.895-16.32c1.749 0 3.275.33 4.576.992a7.055 7.055 0 0 1 3.04 2.816c.725 1.237 1.088 2.741 1.088 4.512 0 1.75-.363 3.253-1.088 4.512a7.257 7.257 0 0 1-3.04 2.848c-1.301.64-2.827.96-4.576.96-1.707 0-3.221-.32-4.544-.96a7.47 7.47 0 0 1-3.072-2.848c-.725-1.259-1.088-2.763-1.088-4.512 0-1.77.363-3.275 1.088-4.512a7.259 7.259 0 0 1 3.072-2.816c1.323-.661 2.837-.992 4.544-.992Zm0 4.448c-.469 0-.875.117-1.216.352-.32.235-.565.64-.736 1.216-.171.576-.256 1.344-.256 2.304 0 .96.085 1.728.256 2.304.171.555.416.96.736 1.216.341.235.747.352 1.216.352.491 0 .896-.117 1.216-.352.32-.256.565-.661.736-1.216.171-.576.256-1.344.256-2.304 0-.96-.085-1.728-.256-2.304-.171-.576-.416-.981-.736-1.216s-.725-.352-1.216-.352ZM119.068 31V15h5.792l.192 3.744c.363-1.259.928-2.25 1.696-2.976.789-.725 1.813-1.088 3.072-1.088.448 0 .811.043 1.088.128.277.064.48.15.608.256l-.576 5.248a4.558 4.558 0 0 0-.832-.224 6.48 6.48 0 0 0-1.184-.096c-.64 0-1.216.117-1.728.352a2.789 2.789 0 0 0-1.216 1.056c-.299.448-.448 1.024-.448 1.728V31h-6.464Zm32.817-16-7.968 8.64-1.152.192-4.32 5.056-.096-6.4L144.845 15h7.04Zm-12.384-6.592V31h-6.464V8.408h6.464Zm5.472 11.136L152.237 31h-7.104l-4.192-7.648 4.032-3.808Zm25.236-7.264h-12.224v6.816h9.536v2.4h-9.536V31h-2.56V9.88h14.784v2.4Zm6.699-4.64v19.296c0 .81.149 1.376.448 1.696.299.299.779.448 1.44.448.427 0 .779-.032 1.056-.096s.651-.181 1.12-.352l-.416 2.24c-.341.15-.715.256-1.12.32a6.04 6.04 0 0 1-1.248.128c-1.301 0-2.272-.352-2.912-1.056-.619-.704-.928-1.781-.928-3.232V7.64h2.56Zm13.973 7.04c1.515 0 2.848.33 4 .992 1.174.661 2.091 1.621 2.752 2.88.662 1.237.992 2.72.992 4.448 0 1.728-.33 3.221-.992 4.48-.661 1.237-1.578 2.187-2.752 2.848-1.152.661-2.485.992-4 .992-1.493 0-2.826-.33-4-.992-1.173-.661-2.09-1.61-2.752-2.848-.661-1.259-.992-2.752-.992-4.48 0-1.728.331-3.21.992-4.448.662-1.259 1.579-2.219 2.752-2.88 1.174-.661 2.507-.992 4-.992Zm0 2.208c-1.088 0-2.016.245-2.784.736-.768.49-1.365 1.195-1.792 2.112-.405.896-.608 1.984-.608 3.264 0 1.259.203 2.347.608 3.264.427.917 1.024 1.621 1.792 2.112.768.49 1.696.736 2.784.736 1.088 0 2.016-.245 2.784-.736.768-.49 1.355-1.195 1.76-2.112.427-.917.64-2.005.64-3.264 0-1.28-.213-2.368-.64-3.264-.405-.917-.992-1.621-1.76-2.112-.768-.49-1.696-.736-2.784-.736ZM223.009 15h2.848l-5.568 16h-2.56l-4.512-12.736L208.961 31h-2.56l-5.568-16h2.848l4.032 13.024L212.065 15h2.56l4.352 13.024L223.009 15Z" fill="#fff"/><defs><clipPath id="a"><path fill="#fff" transform="translate(0 .922)" d="M0 0h62v43.155H0z"/></clipPath></defs></svg>
